assets/svg/logo.svg

<!-- assets/svg/logo.svg -->
<svg xmlns="http://www.w3.org/2000/svg" style="display:none">

  <!-- … tu símbolo #gb-marker existente … -->

  <!-- GB - Logo circular a tres franjas (verde/azul/naranja) -->
  <symbol id="gb-logo-circle" viewBox="0 0 210 210" aria-hidden="true">
    <!-- Fondo a tres franjas (permite override por CSS variables si quieres) -->
    <g class="bg">
      <path d="m203.99 140h-197.99a105 105 0 0 0 98.995 70 105 105 0 0 0 98.995-70z"
            fill="var(--gb-orange, #f29416)"/>
      <path d="m203.99 70h-197.99a105 105 0 0 0-6.0048 35 105 105 0 0 0 6.0048 35h197.99a105 105 0 0 0 6.0053-35 105 105 0 0 0-6.0053-35z"
            fill="var(--gb-blue, #3589ca)"/>
      <path d="m6.0048 70h197.99a105 105 0 0 0-98.995-70 105 105 0 0 0-98.995 70z"
            fill="var(--gb-green, #55ce36)"/>
    </g>

    <!-- WC en blanco (puedes cambiar con --gb-wc) -->
    <g class="wc" transform="translate(389.89 7.4835)" fill="var(--gb-wc, #ffffff)">
      <g transform="matrix(4.3702 0 0 4.3702 484.99 -686.71)">
        <path d="m-169.59 189.74c-2.0793 0.82577-4.6109 1.0092-7.213 1.0092-2.1141-1.4e-4 -3.913-0.34488-5.9257-0.94879l2.0324 3.6174-0.13329 4.4933 10.041-0.0114-0.68988-4.3625z" stroke-width=".52889"/>
        <path d="m-165.33 185.81h-21.671a11.178 5.2044 0 0 0 10.835 3.9261 11.178 5.2044 0 0 0 10.837-3.9261z"/>
        <path transform="matrix(4.4787 0 0 4.4787 -523.46 -326.32)" d="m75.12 113.51c-0.23158 0-0.41801 0.16658-0.41801 0.37352 0 0.0844 0.03105 0.16199 0.08344 0.22439h5.5169c0.0524-0.0624 0.08344-0.14003 0.08344-0.22439 0-0.20694-0.18643-0.37352-0.41801-0.37352z"/>
        <path d="m-167.84 179.33h-16.64c0.70538 1.0134 1.8796 1.6743 3.2143 1.6743h10.212c1.3346 0 2.5089-0.66097 3.2143-1.6743z" stroke-width=".55858"/>
        <path d="m-185.12 164.14c-0.0408 0.22618-0.0615 0.46042-0.0615 0.69864v11.2c0 0.83215 0.25723 1.6023 0.69763 2.235h16.64c0.44039-0.63266 0.69815-1.4028 0.69815-2.235v-11.2c0-0.23827-0.0219-0.47242-0.062-0.69864zm2.2371 0.89553a0.97751 0.97751 0 0 1 0.9772 0.97775 0.97751 0.97751 0 0 1-0.9772 0.97717 0.97751 0.97751 0 0 1-0.97772-0.97717 0.97751 0.97751 0 0 1 0.97772-0.97775z" stroke-width=".55858"/>
        <path d="m-177.73 160.98c-0.38317 0-0.69141 0.30878-0.69141 0.69195 0 9e-3 2.4e-4 0.0178 5.6e-4 0.0266h-6.115c-0.38317 0-0.69196 0.30877-0.69196 0.69195 0 0.38317 0.30879 0.69141 0.69196 0.69141h16.744c0.38317 0 0.69196-0.30824 0.69196-0.69141 0-0.38318-0.30879-0.69195-0.69196-0.69195h-6.115c3.2e-4 -9e-3 5.6e-4 -0.0177 5.6e-4 -0.0266 0-0.38317-0.30824-0.69195-0.69141-0.69195z"/>
      </g>
    </g>
  </symbol>

</svg>

<!-- assets/svg/logo.svg -->
<svg xmlns="http://www.w3.org/2000/svg" xmlns:xlink="http://www.w3.org/1999/xlink"
     viewBox="0 0 210 210" aria-hidden="true">

  <!-- 1) Definimos el símbolo para usarlo desde HTML con <use href="...#gb-logo-circle"> -->
  <defs>
    <symbol id="gb-logo-circle" viewBox="0 0 210 210">
      <!-- Fondo a 3 franjas -->
      <path d="M203.99 140H6.00A105 105 0 0 0 105 210A105 105 0 0 0 203.99 140Z" fill="#F29416"/>
      <path d="M203.99 70H6.00A105 105 0 0 0 0 105A105 105 0 0 0 6.00 140H203.99A105 105 0 0 0 210 105A105 105 0 0 0 203.99 70Z" fill="#3589CA"/>
      <path d="M6.00 70H203.99A105 105 0 0 0 105 0A105 105 0 0 0 6.00 70Z" fill="#55CE36"/>

      <!-- Ícono WC (tu trazo original, ya escalado) -->
      <g transform="translate(389.89 7.4835)">
        <g transform="matrix(4.3702 0 0 4.3702 484.99 -686.71)" fill="#FFFFFF">
          <path d="m-169.59 189.74c-2.0793 0.82577-4.6109 1.0092-7.213 1.0092-2.1141-1.4e-4 -3.913-0.34488-5.9257-0.94879l2.0324 3.6174-0.13329 4.4933 10.041-0.0114-0.68988-4.3625z"/>
          <path d="m-165.33 185.81h-21.671a11.178 5.2044 0 0 0 10.835 3.9261 11.178 5.2044 0 0 0 10.837-3.9261z"/>
          <path transform="matrix(4.4787 0 0 4.4787 -523.46 -326.32)" d="m75.12 113.51c-0.23158 0-0.41801 0.16658-0.41801 0.37352 0 0.0844 0.03105 0.16199 0.08344 0.22439h5.5169c0.0524-0.0624 0.08344-0.14003 0.08344-0.22439 0-0.20694-0.18643-0.37352-0.41801-0.37352z"/>
          <path d="m-167.84 179.33h-16.64c0.70538 1.0134 1.8796 1.6743 3.2143 1.6743h10.212c1.3346 0 2.5089-0.66097 3.2143-1.6743z"/>
          <path d="m-185.12 164.14c-0.0408 0.22618-0.0615 0.46042-0.0615 0.69864v11.2c0 0.83215 0.25723 1.6023 0.69763 2.235h16.64c0.44039-0.63266 0.69815-1.4028 0.69815-2.235v-11.2c0-0.23827-0.0219-0.47242-0.062-0.69864zm2.2371 0.89553a0.97751 0.97751 0 0 1 0.9772 0.97775 0.97751 0.97751 0 0 1-0.9772 0.97717 0.97751 0.97751 0 0 1-0.97772-0.97717 0.97751 0.97751 0 0 1 0.97772-0.97775z"/>
          <path d="m-177.73 160.98c-0.38317 0-0.69141 0.30878-0.69141 0.69195 0 9e-3 2.4e-4 0.0178 5.6e-4 0.0266h-6.115c-0.38317 0-0.69196 0.30877-0.69196 0.69195 0 0.38317 0.30879 0.69141 0.69196 0.69141h16.744c0.38317 0 0.69196-0.30824 0.69196-0.69141 0-0.38318-0.30879-0.69195-0.69196-0.69195h-6.115c3.2e-4 -9e-3 5.6e-4 -0.0177 5.6e-4 -0.0266 0-0.38317-0.30824-0.69195-0.69141-0.69195z"/>
        </g>
      </g>
    </symbol>
  </defs>

  <!-- 2) Esto dibuja el logo para que GitHub muestre PREVIEW -->
  <use href="#gb-logo-circle"/>
</svg>
